humanity-icon-theme/Humanity/status/24/krb-no-valid-ticket.svg

<?xml version="1.0" encoding="UTF-8" standalone="no"?>
<!-- Created with Inkscape (http://www.inkscape.org/) -->

<svg
   xmlns:svg="http://www.w3.org/2000/svg"
   xmlns="http://www.w3.org/2000/svg"
   version="1.1"
   width="24"
   height="24"
   id="svg7739">
  <defs
     id="defs7741" />
  <g
     transform="translate(0.99997361,7)"
     id="layer1"
     style="opacity:0.4">
    <path
       d="m -445.44776,961.79789 a 4.0298181,4.0298181 0 1 1 2.79145,0.0245"
       transform="matrix(1.1022302,0,0,1.1266729,500.411,-1078.2878)"
       id="path7783"
       style="color:#000000;fill:none;stroke:#606060;stroke-width:1.00000167;stroke-linecap:round;stroke-linejoin:miter;stroke-miterlimit:4;stroke-opacity:1;stroke-dasharray:none;stroke-dashoffset:0;marker:none;visibility:visible;display:inline;overflow:visible;enable-background:accumulate" />
    <path
       d="m 9.5,5.5 0,4.968751 1.1,3.031249 3,-3 L 12.141043,9.687501 14,7.5 12.5,6.156 l 0,-0.5"
       id="path7793"
       style="color:#000000;fill:none;stroke:#606060;stroke-width:1;stroke-linecap:round;stroke-linejoin:round;stroke-miterlimit:4;stroke-opacity:1;stroke-dasharray:none;stroke-dashoffset:0;marker:none;visibility:visible;display:inline;overflow:visible;enable-background:accumulate" />
    <path
       d="m -443.14996,955.8125 a 0.53754,0.53754 0 1 1 -1.07508,0 0.53754,0.53754 0 1 1 1.07508,0 z"
       transform="matrix(1.0000276,0,0,1.0000314,454.7373,-955.84207)"
       id="path7795"
       style="color:#000000;fill:none;stroke:#606060;stroke-width:0.9999705;stroke-linecap:round;stroke-linejoin:miter;stroke-miterlimit:4;stroke-opacity:1;stroke-dasharray:none;stroke-dashoffset:0;marker:none;visibility:visible;display:inline;overflow:visible;enable-background:accumulate" />
  </g>
  <path
     d="m 16,19 2,0 0,2 -2,0 0,-2 z m 0,-8 0,4.007042 L 16.25,17 17.75,17 18,15.007042 18,11 16,11 z"
     id="path3659"
     style="fill:#ff0f0f;fill-opacity:1;stroke:none;display:inline" />
</svg>

<?xml version="1.0" encoding="UTF-8" standalone="no"?>
<!-- Created with Inkscape (http://www.inkscape.org/) -->
<svg id="svg7739" xmlns="http://www.w3.org/2000/svg" height="24" width="24" version="1.1">
 <g id="layer1" style="opacity:.4" transform="translate(.99997 7)">
  <path id="path7783" style="color:#000000;stroke:#606060;stroke-linecap:round;fill:none" d="m-445.45 961.8a4.0298 4.0298 0 1 1 2.7914 0.0245" transform="matrix(1.1022 0 0 1.1267 500.41 -1078.3)"/>
  <path id="path7793" style="stroke-linejoin:round;color:#000000;stroke:#606060;stroke-linecap:round;fill:none" d="m9.5 5.5v4.9688l1.1 3.0312 3-3-1.459-0.8125 1.859-2.1875-1.5-1.344v-0.5"/>
  <path id="path7795" style="stroke-width:.99997;color:#000000;stroke:#606060;stroke-linecap:round;fill:none" d="m-443.15 955.81a0.53754 0.53754 0 1 1 -1.0751 0 0.53754 0.53754 0 1 1 1.0751 0z" transform="translate(454.74 -955.84)"/>
 </g>
 <path id="path3659" style="fill:#ff0f0f" d="m16 19h2v2h-2v-2zm0-8v4.007l0.25 1.993h1.5l0.25-1.993v-4.007h-2z"/>
</svg>
